X: 31
M:4/4
L:1/8
Q:180
K:G
c>B|A>A,A,>B, C>DE>F|G2 (3AGF G2 c>B|A>A,A,>B, C>DE>G|c2 (3edc A2 c>B|
e>aa>f g>ba>f|e>aa>f g2 g>a|(3bag (3agf (3gfe (3def|(3gfe (3dcB A2||

